img/icolearn.svg

<svg id="easy_to_learn" viewBox="0 0 670 670"><path stroke-width="0" stroke="#F04877" fill="rgba(240,72,119,.75)" d="M320 393.561207348164 C402.2716934132322 444.58174629988537 508.9704475578765 366.04070247968195 508.9704475578763 269.15541489794316 C508.9704475578763 172.27012731620437 424.36549638688973 93.72908349600095 319.99999999999983 147.05578413323929 C215.6345036131098 93.72908349600095 131.02955244212325 172.27012731620437 131.02955244212325 269.15541489794316 C131.02955244212333 366.04070247968195 237.72830658676736 444.58174629988537 320 393.561207348164  z "></path><path fill="#5E6D72" stroke="none" d="M608.1295611998461 441.17421670956907 L609.030368186551 441.2290717582489 L609.9211465644897 441.3196253299476 L610.8011832804881 441.4451643714911 L611.6697652813727 441.604975829706 L612.5261795139701 441.7983466514187 L613.3697129251062 442.0245637834553 L614.1996524616078 442.2829141726425 L615.0152850703005 442.5726847658062 L615.8158976980111 442.89316250977276 L616.600777291566 443.2436343513688 L617.3692107977913 443.62338723742033 L618.1204851635138 444.0317081147542 L618.853887335559 444.467883930196 L619.5687042607537 444.9312016305726 L620.2642228859244 445.4209481627101 L620.9397301578971 445.93641047343476 L621.5945130234986 446.47687550957335 L622.2278584295545 447.04163021795154 L622.8390533228915 447.62996154539604 L623.4273846503361 448.2411564387331 L623.9921393587144 448.8745018447893 L624.5326043948528 449.52928471039047 L625.0480667055776 450.2047919823633 L625.5378132377151 450.90031060753387 L626.0011309380916 451.6151275327287 L626.4373067535334 452.348529704774 L626.845627630867 453.09980407049625 L627.2253805169189 453.86823757672175 L627.5758523585148 454.6531171702766 L627.8963301024814 455.4537297979873 L628.1861006956452 456.26936240668016 L628.4444510848323 457.09930194318144 L628.6706682168689 457.9428353543176 L628.8640390385816 458.7992495869148 L629.0238504967965 459.6678315877995 L629.1493895383401 460.54786830379805 L629.2399431100387 461.43864668173654 L629.2947981587184 462.3394536684416 L629.3132416312059 463.2495762107393 L629.3132416312059 485.3433791843969 L76.96816728976663 485.3433791843969 L76.05804474746888 485.3618226568843 L75.1572377607639 485.41667770556415 L74.26645938282533 485.50723127726263 L73.38642266682686 485.63277031880625 L72.51784066594216 485.7925817770213 L71.66142643334491 485.9859525987339 L70.81789302220879 486.2121697307706 L69.98795348570746 486.47052011995765 L69.17232087701461 486.76029071312126 L68.3717082493039 487.0807684570879 L67.58682865574902 487.431240298684 L66.81839514952361 487.8109931847356 L66.0671207838014 488.2193140620693 L65.33371861175604 488.6554898775111 L64.6189016865612 489.11880757788776 L63.923383061390545 489.6085541100253 L63.24787578941776 490.12401642074997 L62.59309292381654 490.6644814568884 L61.959747517760526 491.2292361652666 L61.34855262442342 491.8175674927112 L60.760221296978884 492.42876238604833 L60.195466588600596 493.0621077921044 L59.65500155246222 493.71689065770545 L59.13953924173745 494.39239792967834 L58.64979270959996 495.08791655484896 L58.18647500922341 495.8027334800439 L57.75029919378149 496.5361356520893 L57.34197831644783 497.2874100178113 L56.96222543039619 498.0558435240368 L56.61175358880017 498.8407231175916 L56.29127584483348 499.64133574530246 L56.00150525166979 500.4569683539954 L55.74315486248274 501.2869078904965 L55.51693773044606 502.13044130163263 L55.32356690873341 502.98685553422996 L55.16375545051846 503.85543753511473 L55.03821640897487 504.7354742511132 L54.94766283727631 505.6262526290516 L54.8928077885965 506.52705961575657 L54.87436431610908 507.4371821580544 L54.87436431610908 573.7185910790272 L54.89280778859651 574.6287136213249 L54.947662837276326 575.5295206080299 L55.03821640897486 576.4202989859685 L55.16375545051846 577.300335701967 L55.32356690873341 578.1689177028517 L55.51693773044607 579.0253319354489 L55.74315486248275 579.868865346585 L56.00150525166977 580.6988048830864 L56.291275844833464 581.5144374917793 L56.61175358880016 582.3150501194899 L56.96222543039618 583.099929713045 L57.34197831644783 583.8683632192701 L57.75029919378147 584.6196375849923 L58.1864750092234 585.3530397570377 L58.64979270959995 586.0678566822326 L59.13953924173745 586.7633753074033 L59.655001552462224 587.438882579376 L60.195466588600596 588.0936654449772 L60.760221296978884 588.7270108510332 L61.34855262442342 589.3382057443703 L61.95974751776053 589.9265370718149 L62.59309292381655 590.4912917801933 L63.24787578941776 591.0317568163315 L63.92338306139054 591.5472191270563 L64.61890168656119 592.0369656591939 L65.33371861175604 592.5002833595704 L66.06712078380141 592.9364591750126 L66.81839514952361 593.3447800523458 L67.58682865574902 593.7245329383976 L68.3717082493039 594.0750047799936 L69.17232087701461 594.3954825239604 L69.9879534857075 594.6852531171243 L70.81789302220878 594.943603506311 L71.66142643334491 595.1698206383477 L72.51784066594216 595.3631914600604 L73.38642266682687 595.5230029182753 L74.26645938282533 595.648541959819 L75.15723776076389 595.7390955315174 L76.05804474746887 595.7939505801971 L76.96816728976663 595.8123940526847 L629.3132416312059 595.8123940526847 L629.3132416312059 617.9061970263423 L629.2947981587183 618.8163195686399 L629.2399431100387 619.7171265553449 L629.1493895383402 620.6079049332837 L629.0238504967966 621.4879416492821 L628.8640390385817 622.3565236501669 L628.6706682168688 623.212937882764 L628.4444510848322 624.0564712939 L628.1861006956453 624.8864108304016 L627.8963301024816 625.7020434390944 L627.5758523585148 626.502656066805 L627.2253805169189 627.2875356603599 L626.8456276308669 628.0559691665851 L626.4373067535336 628.8072435323077 L626.0011309380916 629.5406457043529 L625.5378132377151 630.2554626295478 L625.0480667055774 630.9509812547184 L624.5326043948527 631.6264885266911 L623.9921393587144 632.2812713922926 L623.4273846503361 632.9146167983483 L622.8390533228916 633.5258116916855 L622.2278584295543 634.11414301913 L621.5945130234984 634.6788977275083 L620.9397301578972 635.2193627636468 L620.2642228859245 635.7348250743715 L619.5687042607537 636.224571606509 L618.853887335559 636.6878893068856 L618.1204851635136 637.1240651223275 L617.3692107977914 637.532385999661 L616.600777291566 637.9121388857128 L615.8158976980111 638.2626107273088 L615.0152850703005 638.5830884712755 L614.1996524616076 638.8728590644391 L613.3697129251062 639.1312094536263 L612.5261795139701 639.3574265856629 L611.6697652813729 639.5507974073755 L610.8011832804882 639.7106088655905 L609.9211465644896 639.8361479071342 L609.0303681865511 639.9267014788327 L608.1295611998462 639.9815565275126 L607.2194386575484 639.9999999999999 L32.78056134245148 639.9999999999999 L31.87043880015374 639.9815565275123 L30.969631813448746 639.9267014788325 L30.078853435510187 639.8361479071343 L29.19881671951172 639.7106088655905 L28.330234718627022 639.5507974073755 L27.473820486029766 639.3574265856629 L26.63028707489364 639.1312094536261 L25.800347538392316 638.8728590644394 L24.984714929699464 638.5830884712756 L24.184102301988748 638.2626107273088 L23.39922270843386 637.9121388857128 L22.63078920220847 637.532385999661 L21.879514836486265 637.1240651223276 L21.14611266444089 636.6878893068857 L20.431295739246043 636.2245716065089 L19.735777114075397 635.7348250743714 L19.060269842102613 635.2193627636467 L18.405486976501393 634.6788977275085 L17.77214157044538 634.11414301913 L17.16094667710827 633.5258116916854 L16.57261534966373 632.9146167983483 L16.007860641285443 632.2812713922925 L15.467395605147077 631.6264885266911 L14.951933294422304 630.9509812547184 L14.462186762284807 630.2554626295477 L13.99886906190825 629.5406457043528 L13.56269324646632 628.8072435323074 L13.154372369132687 628.0559691665852 L12.774619483081027 627.2875356603599 L12.424147641485012 626.502656066805 L12.103669897518317 625.7020434390943 L11.813899304354623 624.8864108304015 L11.5555489151676 624.0564712939001 L11.329331783130918 623.2129378827641 L11.135960961418263 622.3565236501669 L10.976149503203304 621.487941649282 L10.850610461659716 620.6079049332836 L10.760056889961174 619.7171265553451 L10.705201841281355 618.81631956864 L10.686758368793932 617.9061970263423 L10.686758368793932 463.2495762107393 L10.705201841281353 462.33945366844154 L10.760056889961172 461.43864668173654 L10.850610461659718 460.5478683037981 L10.976149503203304 459.6678315877996 L11.135960961418263 458.7992495869148 L11.329331783130918 457.9428353543176 L11.555548915167597 457.0993019431814 L11.813899304354626 456.2693624066803 L12.10366989751832 455.4537297979873 L12.424147641485014 454.6531171702766 L12.774619483081025 453.8682375767217 L13.154372369132684 453.09980407049613 L13.562693246466324 452.3485297047742 L13.99886906190825 451.6151275327287 L14.462186762284805 450.90031060753387 L14.951933294422304 450.20479198236325 L15.467395605147072 449.52928471039047 L16.007860641285443 448.8745018447893 L16.57261534966373 448.2411564387332 L17.16094667710827 447.62996154539604 L17.77214157044538 447.0416302179515 L18.40548697650139 446.47687550957323 L19.060269842102617 445.9364104734349 L19.735777114075397 445.42094816271015 L20.431295739246043 444.93120163057256 L21.146112664440892 444.46788393019597 L21.87951483648626 444.03170811475405 L22.63078920220847 443.62338723742045 L23.39922270843386 443.24363435136877 L24.184102301988748 442.89316250977276 L24.984714929699457 442.5726847658061 L25.800347538392316 442.2829141726424 L26.630287074893644 442.0245637834554 L27.473820486029766 441.7983466514187 L28.33023471862702 441.604975829706 L29.19881671951172 441.4451643714911 L30.078853435510183 441.31962532994754 L30.96963181344875 441.22907175824895 L31.87043880015374 441.1742167095691 L32.78056134245148 441.15577323708175 L607.2194386575484 441.15577323708175 L608.1295611998461 441.17421670956907  z "></path><path fill="#48F06D" stroke-width="0" d="M323.35197919528116 13.654867256637175 C332.23061219801076 13.654867256637175 339.4389357170203 20.863190775646743 339.4389357170203 29.741823778376315 L339.4389357170203 145.6248557137361 C339.4389357170203 154.5034887164657 332.23061219801076 161.7118122354753 323.35197919528116 161.7118122354753 L322.782529406901 161.7118122354753 C313.90389640417135 161.7118122354753 306.6955728851618 154.5034887164657 306.6955728851618 145.6248557137361 L306.6955728851618 29.741823778376315 C306.6955728851618 20.863190775646743 313.90389640417135 13.654867256637175 322.782529406901 13.654867256637175  z "></path><path fill="#48F06D" stroke="#48F06D" d="M238.89852247853295 76.33970194932806 C300.77405050036526 69.93108001117974 332.41232580679656 86.76782556970772 336.92371818237245 69.93108001117974 C309.10708048853604 69.93108001117972 296.3602408600078 73.93846854483726 255.23571946098033 23.87035968596596 C205.60929113356022 2.071091364000111 161.7219161327168 4.940329137193665 157.21052375714095 21.777074695721637 C152.69913138156508 38.613820254249624 189.27209415111278 63.042340555754826 238.8985224785328 76.33970194932803  z "></path><path fill="#48F06D" stroke-width="0" d="M350.6414329970238 11.774711531806474 C354.44007862371586 18.354158757186383 355.93878304992165 24.61111652352332 353.98612096500005 25.73848650388919 L328.50017029259703 40.45280698515461 C326.54750820767543 41.58017696552048 321.8781760447242 37.153781976493576 318.07953041803216 30.574334751113668 L317.8358962969252 30.152348074899066 C314.0372506702332 23.572900849519215 312.5385462440274 17.31594308318222 314.49120832894897 16.18857310281635 L339.97715900135205 1.4742526215509315 C341.92982108627365 0.3468826411850614 346.59915324922486 4.7732776302120214 350.39779887591686 11.352724855591873  z "></path><path stroke="none" fill="#7A8B91" d="M596.1725371707194 505.4371821580544 C602.2694880754052 505.4371821580544 607.2194386575482 508.00792048087334 607.2194386575482 511.17434913160884 L607.2194386575482 511.17434913160884 C607.2194386575482 514.3407777823443 602.2694880754052 516.9115161051634 596.1725371707194 516.9115161051634 L88.0150687765954 516.9115161051634 C81.91811787190943 516.9115161051634 76.9681672897666 514.3407777823443 76.9681672897666 511.17434913160884 L76.9681672897666 511.17434913160884 C76.9681672897666 508.00792048087334 81.91811787190943 505.4371821580544 88.0150687765954 505.4371821580544  z "></path><path stroke="none" fill="#7A8B91" d="M596.1725371707194 535.4371821580544 C602.2694880754052 535.4371821580544 607.2194386575482 538.0079204808733 607.2194386575482 541.1743491316088 L607.2194386575482 541.1743491316088 C607.2194386575482 544.3407777823443 602.2694880754052 546.9115161051634 596.1725371707194 546.9115161051634 L88.0150687765954 546.9115161051634 C81.91811787190943 546.9115161051634 76.9681672897666 544.3407777823443 76.9681672897666 541.1743491316088 L76.9681672897666 541.1743491316088 C76.9681672897666 538.0079204808733 81.91811787190943 535.4371821580544 88.0150687765954 535.4371821580544  z "></path><path stroke="none" fill="#7A8B91" d="M596.1725371707194 565.4371821580544 C602.2694880754052 565.4371821580544 607.2194386575482 568.0079204808733 607.2194386575482 571.1743491316088 L607.2194386575482 571.1743491316088 C607.2194386575482 574.3407777823443 602.2694880754052 576.9115161051634 596.1725371707194 576.9115161051634 L88.0150687765954 576.9115161051634 C81.91811787190943 576.9115161051634 76.9681672897666 574.3407777823443 76.9681672897666 571.1743491316088 L76.9681672897666 571.1743491316088 C76.9681672897666 568.0079204808733 81.91811787190943 565.4371821580544 88.0150687765954 565.4371821580544  z "></path></svg>

<svg id="easy_to_learn" data-name="easy to learn" xmlns="http://www.w3.org/2000/svg" viewBox="0 0 670 670"><defs><style>.cls-1{fill:#5e6d72;}.cls-2,.cls-3{fill:#48f06d;}.cls-3{stroke:#48f06d;}.cls-4{fill:#7a8b91;}</style></defs><title>icolearn</title><path d="M320,393.56c82.27,51,189-27.52,189-124.4s-84.6-175.43-189-122.1c-104.37-53.33-189,25.21-189,122.1S237.73,444.58,320,393.56Z"/><path class="cls-1" d="M608.13,441.17l.9.06.89.09.88.13.87.15.86.2.84.22.83.26.82.29.8.32.78.35.77.38.75.41.73.44.72.46.69.49.68.52.65.54.64.56.61.59.59.61.56.63.54.66.52.67.49.7.46.72.44.73.41.75.38.77.35.78.32.8.29.82.25.83.23.84.19.86.16.87.13.88.09.89,0,.9,0,.91v22.09H77l-.91,0-.9.06-.89.09-.88.12-.87.16-.86.2-.84.22-.83.26-.82.29-.8.32-.78.35-.77.38-.75.41-.74.44-.71.46-.7.49-.67.51-.66.54-.63.57-.61.59-.59.61-.56.63-.54.66-.52.67-.49.7-.46.71-.44.74-.41.75-.38.77-.35.78-.32.8-.29.82-.26.83-.22.84-.2.86-.16.87-.12.88-.09.89-.06.9,0,.91v66.28l0,.91.06.9.09.89.12.88.16.87.2.86.22.84.26.83.29.81.32.81.35.78.38.77.41.75.44.73.46.72.49.69.52.68.54.65.56.64.59.61.61.59.63.56.66.54.67.52.7.49.71.46.74.44.75.4.77.38.78.36.8.32.82.29.83.25.84.23.86.19.87.16.88.13.89.09.9,0,.91,0H629.31v22.1l0,.91,0,.9-.09.89-.13.88-.16.87-.19.85-.23.85-.25.83-.29.81-.32.8-.35.79-.38.77-.41.75-.44.73-.46.72-.49.69-.52.68-.54.65-.56.63-.59.62-.61.58-.64.57-.65.54-.68.51-.69.49-.72.47-.73.43-.75.41-.77.38-.78.35-.8.32-.82.29-.83.26-.84.23-.86.19-.87.16-.88.13-.89.09-.9.05-.91,0H32.78l-.91,0-.9-.05-.89-.09-.88-.13-.87-.16-.86-.19-.84-.23-.83-.26-.82-.29-.8-.32-.78-.35-.77-.38-.75-.41-.73-.43-.72-.47-.69-.49-.68-.51-.65-.54-.64-.57-.61-.58-.59-.62-.56-.63-.54-.65L15,631l-.49-.69-.46-.72-.44-.73-.41-.75-.38-.77-.35-.79-.32-.8-.29-.81-.25-.83-.23-.85-.19-.85-.16-.87-.13-.88-.09-.89,0-.9,0-.91V463.25l0-.91,0-.9.09-.89.13-.88.16-.87.19-.86.23-.84.25-.83.29-.82.32-.8.35-.78.38-.77.41-.75.44-.73.46-.72.49-.7.52-.67.54-.66.56-.63.59-.61.61-.59.64-.56.65-.54.68-.52.69-.49.72-.46.73-.44.75-.41.77-.38.78-.35.8-.32.82-.29.83-.26.84-.22.86-.2.87-.15.88-.13.89-.09.9-.06H608.13Z"/><path class="cls-2" d="M323.35,13.65a16.1,16.1,0,0,1,16.09,16.09V145.62a16.1,16.1,0,0,1-16.09,16.09h-.57a16.09,16.09,0,0,1-16.08-16.09V29.74a16.09,16.09,0,0,1,16.08-16.09Z"/><path class="cls-3" d="M238.9,76.34c61.87-6.41,93.51,10.43,98-6.41-27.81,0-40.56,4-81.68-46.06-49.63-21.8-93.52-18.93-98-2.09S189.27,63,238.9,76.34Z"/><path class="cls-2" d="M350.64,11.77c3.8,6.58,5.3,12.84,3.35,14L328.5,40.45c-1.95,1.13-6.62-3.3-10.42-9.88l-.24-.42c-3.8-6.58-5.3-12.83-3.35-14L340,1.47c1.95-1.12,6.62,3.3,10.42,9.88Z"/><path class="cls-4" d="M596.17,505.44c6.1,0,11.05,2.57,11.05,5.73h0c0,3.17-5,5.74-11.05,5.74H88c-6.1,0-11-2.57-11-5.74h0c0-3.16,5-5.73,11-5.73Z"/><path class="cls-4" d="M596.17,535.44c6.1,0,11.05,2.57,11.05,5.73h0c0,3.17-5,5.74-11.05,5.74H88c-6.1,0-11-2.57-11-5.74h0c0-3.16,5-5.73,11-5.73Z"/><path class="cls-4" d="M596.17,565.44c6.1,0,11.05,2.57,11.05,5.73h0c0,3.17-5,5.74-11.05,5.74H88c-6.1,0-11-2.57-11-5.74h0c0-3.16,5-5.73,11-5.73Z"/></svg>
